source/img/support-diagnostic.svg

<svg width="84" height="51" viewBox="0 0 84 51" fill="none" xmlns="http://www.w3.org/2000/svg">
<path d="M17.5 38C15.5707 38 14 39.5703 14 41.5C14 43.4297 15.5698 45 17.5 45C19.4302 45 21 43.4297 21 41.5C21 39.5703 19.4293 38 17.5 38ZM17.5 42.4136C16.9966 42.4136 16.5862 42.0025 16.5862 41.4991C16.5862 40.9958 16.9966 40.5847 17.5 40.5847C18.0034 40.5847 18.4138 40.9958 18.4138 41.4991C18.4138 42.0025 18.0034 42.4136 17.5 42.4136Z" fill="#F1AC00"/>
<path d="M76.2561 43.2233C79.9902 43.1292 83 40.1126 83 36.4107V32.6173C83 26.2501 78.5925 20.8469 72.283 19.4815C68.528 18.6675 65.0759 16.6142 62.5609 13.6977C54.8336 4.7368 44.5545 0 32.834 0L5.81648 0.201971C2.62363 0.226138 0.0262713 2.79047 0.0262713 5.91927V37.7157C0.0262713 40.8678 2.62889 43.4339 5.82699 43.4339C6.86996 43.4339 7.9252 43.4322 8.9778 43.4304C9.42792 45.4571 10.6171 47.21 12.2503 48.4106H0V51H76.222V48.4106H72.9398C74.6291 47.1703 75.8428 45.3388 76.2561 43.2233ZM71.7182 22.0113C74.5608 22.6267 76.9217 24.2571 78.4568 26.4701C75.2911 26.1361 72.5274 24.3969 70.8801 21.7938C71.1604 21.8663 71.4362 21.9509 71.7182 22.0113ZM17.3741 47.507C14.0806 47.507 11.4018 44.865 11.4018 41.6205C11.4018 38.376 14.0815 35.734 17.3741 35.734C20.6668 35.734 23.3456 38.376 23.3456 41.6205C23.3456 44.865 20.6668 47.507 17.3741 47.507ZM22.497 48.4106C24.1408 47.204 25.3361 45.4372 25.7801 43.3933C30.8697 43.3752 35.9524 43.3545 40.9571 43.3329C47.0284 43.3079 53.2056 43.282 59.3803 43.2639C59.7998 45.3612 61.0117 47.1764 62.6905 48.4106H22.497ZM67.8152 47.507C64.5216 47.507 61.8428 44.865 61.8428 41.6205C61.8428 38.376 64.5225 35.734 67.8152 35.734C71.1078 35.734 73.7875 38.376 73.7875 41.6205C73.7875 44.865 71.1087 47.507 67.8152 47.507ZM67.8152 33.1447C63.3981 33.1447 59.7516 36.4452 59.2726 40.6754C53.1295 40.6935 46.9846 40.7194 40.9457 40.7444C35.9935 40.766 30.9661 40.7867 25.9307 40.8031C25.5121 36.5125 21.835 33.1447 17.3741 33.1447C12.8992 33.1447 9.21512 36.5333 8.81492 40.8419C7.81573 40.8437 6.81567 40.8454 5.82699 40.8454C4.07732 40.8454 2.65341 39.4411 2.65341 37.7166V36.3296H8.84207V33.7402H2.65253V5.91927C2.65253 4.20771 4.08082 2.80514 5.83662 2.79133L32.5257 2.59022L32.8348 2.58936C43.7611 2.58936 53.3484 7.01112 60.5608 15.3765C62.44 17.5576 64.7843 19.308 67.3808 20.5284C69.1708 25.6752 74.0572 29.1277 79.5856 29.1277C79.653 29.1277 79.7231 29.1173 79.7905 29.1173C80.1671 30.2178 80.3737 31.3968 80.3737 32.619V33.7402H76.2229V36.3296H80.3737V36.4124C80.3737 38.6548 78.5899 40.4769 76.3498 40.6167C75.8428 36.415 72.2121 33.1447 67.8152 33.1447Z" fill="#F1AC00"/>
<path d="M67.5 38C65.5707 38 64 39.5703 64 41.5C64 43.4297 65.5698 45 67.5 45C69.4302 45 71 43.4297 71 41.5C71 39.5703 69.4302 38 67.5 38ZM67.5 42.4136C66.9966 42.4136 66.5862 42.0025 66.5862 41.4991C66.5862 40.9958 66.9966 40.5847 67.5 40.5847C68.0035 40.5847 68.4138 40.9958 68.4138 41.4991C68.4138 42.0025 68.0035 42.4136 67.5 42.4136Z" fill="#F1AC00"/>
<path d="M59 34H27V36H59V34Z" fill="#F1AC00"/>
<path d="M42.5562 5H40V21H62V18.3304H42.5562V5Z" fill="#F1AC00"/>
<path d="M84 48H78V51H84V48Z" fill="#F1AC00"/>
<path d="M19.3369 21.0015H12C12 20.282 12.1244 19.6308 12.3731 19.0479C12.6218 18.465 12.9314 18.0051 13.3021 17.6681C13.6727 17.3266 14.075 17.0033 14.509 16.6982C14.9431 16.3885 15.3429 16.1267 15.7087 15.9127C16.0793 15.6941 16.389 15.4414 16.6377 15.1545C16.8913 14.863 17.0181 14.5511 17.0181 14.2187C17.0181 13.8271 16.8864 13.5197 16.6231 13.2965C16.3646 13.0689 15.9964 12.955 15.5185 12.955C15.1381 12.955 14.8089 13.0552 14.531 13.2556C14.2579 13.4559 14.0775 13.654 13.9897 13.8498L13.8726 14.1435L12 13.3102C12.0195 13.2465 12.0512 13.1622 12.0951 13.0575C12.139 12.9527 12.256 12.7683 12.4462 12.5042C12.6364 12.2355 12.8559 12.001 13.1046 11.8006C13.3533 11.6003 13.7044 11.4181 14.1579 11.2542C14.6163 11.0857 15.1186 11.0015 15.6648 11.0015C16.7328 11.0015 17.6106 11.3043 18.2982 11.9099C18.9907 12.5156 19.3369 13.2601 19.3369 14.1435C19.3369 14.6399 19.2223 15.0907 18.9931 15.496C18.7639 15.9013 18.464 16.2474 18.0934 16.5343C17.7227 16.8166 17.3424 17.0784 16.9522 17.3198C16.567 17.5566 16.172 17.8275 15.7672 18.1326C15.3624 18.4332 15.0552 18.736 14.8455 19.0411H19.3369V21.0015Z" fill="#F1AC00"/>
<path d="M27.8003 17.4359H29V19.2528H27.8003V21.0015H25.5546V19.2528H20.6097V17.1558L25.1816 11.2064H27.8003V17.4359ZM25.5546 17.4359V13.6586L22.7091 17.4359H25.5546Z" fill="#F1AC00"/>
</svg>

<svg width="84" height="51" fill="none" viewBox="0 0 84 51" xmlns="http://www.w3.org/2000/svg"><path d="M17.5 38c-1.93 0-3.5 1.57-3.5 3.5s1.57 3.5 3.5 3.5 3.5-1.57 3.5-3.5-1.57-3.5-3.5-3.5zm0 4.414a.916.916 0 0 1-.914-.915c0-.503.41-.914.914-.914a.916.916 0 0 1 0 1.829z"/><path d="M76.256 43.223C79.99 43.13 83 40.113 83 36.411v-3.794c0-6.367-4.407-11.77-10.717-13.135a17.934 17.934 0 0 1-9.722-5.784C54.834 4.737 44.554 0 32.834 0L5.816.202C2.624.226.026 2.79.026 5.919v31.797c0 3.152 2.603 5.718 5.801 5.718 1.043 0 2.098-.002 3.15-.004a8.477 8.477 0 0 0 3.273 4.98H0V51h76.222v-2.59H72.94a8.46 8.46 0 0 0 3.316-5.187zm-4.538-21.212c2.843.616 5.204 2.246 6.739 4.46-3.166-.335-5.93-2.074-7.577-4.677.28.072.556.157.838.217zM17.374 47.507c-3.293 0-5.972-2.642-5.972-5.886 0-3.245 2.68-5.887 5.972-5.887 3.293 0 5.972 2.642 5.972 5.886 0 3.245-2.68 5.887-5.972 5.887zm5.123.904a8.469 8.469 0 0 0 3.283-5.018c5.09-.018 10.172-.038 15.177-.06 6.071-.025 12.249-.051 18.423-.07.42 2.098 1.632 3.913 3.31 5.148H22.498zm45.318-.904c-3.293 0-5.972-2.642-5.972-5.886 0-3.245 2.68-5.887 5.972-5.887 3.293 0 5.972 2.642 5.972 5.886 0 3.245-2.678 5.887-5.972 5.887zm0-14.362c-4.417 0-8.063 3.3-8.542 7.53-6.144.019-12.288.044-18.327.07-4.953.021-9.98.042-15.015.058-.419-4.29-4.096-7.658-8.557-7.658-4.475 0-8.159 3.388-8.56 7.697l-2.987.003c-1.75 0-3.174-1.404-3.174-3.128V36.33h6.19v-2.59h-6.19V5.92c0-1.712 1.428-3.115 3.184-3.129l26.689-.2.309-.002c10.926 0 20.513 4.422 27.726 12.788a20.536 20.536 0 0 0 6.82 5.151c1.79 5.147 6.676 8.6 12.205 8.6.067 0 .137-.01.204-.01.377 1.1.584 2.279.584 3.501v1.121h-4.151v2.59h4.15v.082c0 2.243-1.783 4.065-4.023 4.205-.507-4.202-4.138-7.472-8.535-7.472z"/><path d="M67.5 38c-1.93 0-3.5 1.57-3.5 3.5s1.57 3.5 3.5 3.5 3.5-1.57 3.5-3.5-1.57-3.5-3.5-3.5zm0 4.414a.916.916 0 0 1-.914-.915.915.915 0 1 1 .914.915zM59 34H27v2h32v-2zM42.556 5H40v16h22v-2.67H42.556V5zM84 48h-6v3h6v-3zM19.337 21.002H12c0-.72.124-1.371.373-1.954s.558-1.043.93-1.38c.37-.341.772-.665 1.206-.97.434-.31.834-.571 1.2-.785.37-.219.68-.472.929-.758.253-.292.38-.604.38-.936 0-.392-.132-.7-.395-.922-.258-.228-.627-.342-1.105-.342-.38 0-.71.1-.987.3-.273.2-.454.399-.541.595l-.117.293L12 13.31c.02-.064.051-.148.095-.253.044-.104.161-.289.351-.553.19-.268.41-.503.659-.703.248-.2.6-.383 1.053-.547.458-.168.96-.252 1.507-.252 1.068 0 1.946.302 2.633.908.693.606 1.039 1.35 1.039 2.233a2.7 2.7 0 0 1-.344 1.353c-.23.405-.529.751-.9 1.038-.37.283-.75.544-1.14.786-.386.237-.781.508-1.186.813-.405.3-.712.603-.921.908h4.49v1.96zm8.463-3.566H29v1.817h-1.2V21h-2.245v-1.748H20.61v-2.097l4.572-5.95H27.8v6.23zm-2.245 0v-3.777l-2.846 3.777h2.846z"/></svg>
